X:245
T: FROEHLICH UND WOHLGEMUTH WANDELT DAS JUNGE BLUT
N: B0293
O: Europa, Mitteleuropa, Deutschland
R: Stimmungs - Lied, Freude, Jugend
M: 3/8
L: 1/16
K: A
 | c3BA2 | A2E2E2 |
d3cB2 | B2E2E2 |
A2c2e2 | e3FF2 |
d2B2G2 | B3AA2 |
A2c2e2 | e3FF2 |
d2B2G2 | B3AA2

@@@ Tune index: 2048
